images/Here2Talk_Logo_Secondary.svg

<svg xmlns="http://www.w3.org/2000/svg" width="1062" height="318" fill="none" viewBox="0 0 1062 318"><path fill="#36ECD1" d="M196.42 75.1104H86.11C80.7702 75.1236 75.6537 77.2548 71.8835 81.0363C68.1133 84.8177 65.9973 89.9405 66 95.2803V180.94C66 186.278 68.1171 191.399 71.887 195.178C75.657 198.957 80.7719 201.087 86.11 201.1H119L137.7 238.5C138.239 239.578 139.068 240.485 140.093 241.119C141.118 241.753 142.3 242.088 143.505 242.088C144.71 242.088 145.892 241.753 146.917 241.119C147.942 240.485 148.771 239.578 149.31 238.5L168 201.1H196.42C201.768 201.1 206.896 198.977 210.679 195.196C214.461 191.416 216.587 186.288 216.59 180.94V95.2803C216.59 92.6316 216.068 90.0088 215.055 87.5616C214.041 85.1145 212.555 82.891 210.682 81.018C208.809 79.145 206.586 77.6593 204.139 76.6457C201.692 75.6321 199.069 75.1104 196.42 75.1104Z"/><path fill="#384042" d="M141.27 182C131.046 181.99 121.243 177.924 114.012 170.695C106.781 163.467 102.713 153.665 102.7 143.44C102.7 142.297 103.154 141.201 103.962 140.393C104.771 139.584 105.867 139.13 107.01 139.13C108.153 139.13 109.249 139.584 110.058 140.393C110.866 141.201 111.32 142.297 111.32 143.44C111.084 147.519 111.684 151.603 113.083 155.442C114.481 159.28 116.649 162.793 119.453 165.764C122.257 168.735 125.639 171.102 129.391 172.719C133.142 174.337 137.184 175.172 141.27 175.172C145.355 175.172 149.398 174.337 153.149 172.719C156.901 171.102 160.282 168.735 163.087 165.764C165.891 162.793 168.059 159.28 169.457 155.442C170.856 151.603 171.456 147.519 171.22 143.44C171.192 142.858 171.282 142.275 171.486 141.728C171.69 141.182 172.002 140.682 172.405 140.26C172.807 139.837 173.291 139.501 173.828 139.271C174.364 139.041 174.941 138.923 175.525 138.923C176.108 138.923 176.686 139.041 177.222 139.271C177.758 139.501 178.243 139.837 178.645 140.26C179.048 140.682 179.36 141.182 179.564 141.728C179.768 142.275 179.858 142.858 179.83 143.44C179.817 153.663 175.75 163.463 168.521 170.692C161.293 177.92 151.493 181.987 141.27 182Z"/><path fill="#384042" d="M107.01 118.83C109.793 118.83 112.05 116.574 112.05 113.79C112.05 111.006 109.793 108.75 107.01 108.75C104.226 108.75 101.97 111.006 101.97 113.79C101.97 116.574 104.226 118.83 107.01 118.83Z"/><path fill="#384042" d="M175.53 118.83C178.313 118.83 180.57 116.574 180.57 113.79C180.57 111.006 178.313 108.75 175.53 108.75C172.746 108.75 170.49 111.006 170.49 113.79C170.49 116.574 172.746 118.83 175.53 118.83Z"/><path fill="#384042" d="M244.43 200.64V81.54H267.87V129.45H322.38V81.54H345.82V200.64H322.38V149.77H267.87V200.64H244.43Z"/><path fill="#384042" d="M401.05 202.72C386.457 202.72 375.547 198.87 368.32 191.17C361.093 183.47 357.477 171.413 357.47 155C357.47 138.566 361.087 126.503 368.32 118.81C375.553 111.116 386.463 107.266 401.05 107.26C414.35 107.26 424.39 111.023 431.17 118.55C437.95 126.076 441.333 137.996 441.32 154.31V160.21H379.87C379.983 168.55 381.69 174.86 384.99 179.14C388.28 183.42 393.76 185.56 401.39 185.56C404.618 185.614 407.82 184.963 410.77 183.65C413.453 182.46 415.72 180.496 417.28 178.01C418.939 175.141 419.75 171.861 419.62 168.55H441.32C441.32 176.416 439.557 182.866 436.03 187.9C432.444 192.98 427.428 196.878 421.62 199.1C415.057 201.609 408.075 202.838 401.05 202.72ZM380.21 145.08H418.41C418.41 137.786 416.817 132.55 413.63 129.37C410.443 126.19 406.25 124.596 401.05 124.59C394.557 124.59 389.637 126.256 386.29 129.59C382.943 132.923 380.917 138.086 380.21 145.08Z"/><path fill="#384042" d="M453.63 200.64V109.31H472.2L474.11 123.9H475.33C476.855 119.537 479.281 115.544 482.45 112.18C485.57 108.846 489.903 107.18 495.45 107.18C498.463 107.24 501.448 107.766 504.3 108.74V129.4H497.9C493.593 129.244 489.319 130.202 485.49 132.18C482.169 134.054 479.57 136.987 478.11 140.51C476.355 144.924 475.528 149.652 475.68 154.4V200.59L453.63 200.64Z"/><path fill="#384042" d="M554.15 202.72C539.57 202.72 528.66 198.87 521.42 191.17C514.18 183.47 510.563 171.413 510.57 155C510.57 138.566 514.187 126.503 521.42 118.81C528.653 111.116 539.563 107.266 554.15 107.26C567.483 107.26 577.523 111.023 584.27 118.55C591.017 126.076 594.403 137.996 594.43 154.31V160.21H533C533.107 168.55 534.813 174.86 538.12 179.14C541.427 183.42 546.897 185.56 554.53 185.56C557.755 185.615 560.954 184.963 563.9 183.65C566.585 182.462 568.852 180.498 570.41 178.01C572.072 175.142 572.887 171.862 572.76 168.55H594.46C594.46 176.416 592.693 182.866 589.16 187.9C585.576 192.982 580.56 196.881 574.75 199.1C568.178 201.613 561.185 202.842 554.15 202.72ZM533.32 145.08H571.51C571.51 137.786 569.92 132.55 566.74 129.37C563.56 126.19 559.363 124.596 554.15 124.59C547.67 124.59 542.75 126.256 539.39 129.59C536.03 132.923 534.007 138.086 533.32 145.08Z"/><path fill="#384042" d="M605 200.64V194.56C604.886 188.437 606.357 182.388 609.27 177C612.157 171.846 615.851 167.187 620.21 163.2C624.753 159.02 629.534 155.107 634.53 151.48C639.63 147.78 644.463 144.077 649.03 140.37C653.338 136.947 657.112 132.903 660.23 128.37C661.721 126.085 662.888 123.605 663.7 121C664.51 118.387 664.918 115.666 664.91 112.93C664.878 110.504 664.314 108.115 663.26 105.93C662.054 103.444 660.118 101.385 657.71 100.03C654.652 98.353 651.195 97.5406 647.71 97.6801C644.103 97.5706 640.515 98.2533 637.2 99.6801C634.476 100.912 632.246 103.026 630.87 105.68C629.397 108.703 628.68 112.039 628.78 115.4V122.52H606.93C606.483 120.213 606.249 117.87 606.23 115.52C606.23 106.96 608.2 100.047 612.14 94.7801C616.117 89.479 621.541 85.4403 627.76 83.1501C634.469 80.6174 641.589 79.3494 648.76 79.4101C654.355 79.2738 659.932 80.0956 665.25 81.8401C669.345 83.2207 673.123 85.407 676.36 88.2701C679.081 90.7148 681.346 93.6233 683.05 96.8601C684.551 99.7676 685.661 102.861 686.35 106.06C686.942 108.771 687.26 111.535 687.3 114.31C687.402 120.419 686.127 126.472 683.57 132.02C681.077 137.226 677.731 141.978 673.67 146.08C669.59 150.223 665.179 154.025 660.48 157.45C655.813 160.87 651.327 164.023 647.02 166.91C643.169 169.459 639.566 172.365 636.26 175.59C635.377 176.356 634.564 177.2 633.83 178.11C633.156 178.942 632.572 179.844 632.09 180.8H688V200.6L605 200.64Z"/><path fill="#384042" d="M729.15 200.64V101.64H691.47V81.54H790.26V101.67H752.58V200.67L729.15 200.64Z"/><path fill="#384042" d="M802.24 202.72C799.292 202.664 796.355 202.329 793.47 201.72C790.137 201.089 786.935 199.899 784 198.2C780.853 196.328 778.251 193.667 776.45 190.48C774.45 187.073 773.45 182.586 773.45 177.02C773.45 168.806 775.85 162.383 780.65 157.75C785.45 153.116 792.117 149.846 800.65 147.94C810.266 145.919 820.075 144.96 829.9 145.08V138C829.938 135.664 829.555 133.34 828.77 131.14C827.977 129.065 826.47 127.342 824.52 126.28C822.44 125.073 819.44 124.466 815.52 124.46C811.36 124.46 808.11 124.95 805.8 125.94C803.849 126.634 802.155 127.903 800.94 129.58C800.055 130.889 799.572 132.429 799.55 134.01V136.44H778.11C777.981 135.899 777.92 135.345 777.93 134.79V132.62C777.93 124.866 781.347 118.703 788.18 114.13C795.013 109.556 803.983 107.27 815.09 107.27C827.59 107.27 836.847 109.846 842.86 115C848.873 120.153 851.873 127.3 851.86 136.44V178.63C851.86 180.83 852.49 182.39 853.77 183.31C854.971 184.215 856.436 184.703 857.94 184.7H863.15V199.98C861.543 200.719 859.869 201.302 858.15 201.72C855.477 202.348 852.736 202.64 849.99 202.59C845.93 202.716 841.93 201.592 838.53 199.37C835.408 197.234 833.136 194.07 832.11 190.43H831.11C828.037 194.191 824.185 197.241 819.82 199.37C815.273 201.603 809.413 202.72 802.24 202.72ZM809 185.18C813.028 185.331 817.02 184.373 820.54 182.41C823.568 180.635 826.003 178.005 827.54 174.85C829.155 171.411 829.956 167.647 829.88 163.85V160.2C824.273 160.171 818.673 160.579 813.13 161.42C808.744 161.962 804.518 163.409 800.72 165.67C799.199 166.636 797.963 167.991 797.138 169.594C796.314 171.196 795.932 172.99 796.03 174.79C795.958 176.222 796.209 177.653 796.765 178.975C797.321 180.297 798.167 181.478 799.24 182.43C801.353 184.27 804.607 185.186 809 185.18Z"/><path fill="#384042" d="M873.94 200.64V75.1104H895.94V200.64H873.94Z"/><path fill="#384042" d="M913.87 200.64V75.1104H935.87V147.33L967.81 109.33H993.51L963.13 144.58L995.24 200.66H970L949 160.72L936 173.4V200.66L913.87 200.64Z"/></svg>

<svg xmlns="http://www.w3.org/2000/svg" width="1062" height="318" fill="none" viewBox="0 0 1062 318"><path fill="#36ECD1" d="M196.42 75.11H86.11A20.16 20.16 0 0 0 66 95.28v85.66a20.16 20.16 0 0 0 20.11 20.16H119l18.7 37.4a6.5 6.5 0 0 0 5.805 3.588 6.49 6.49 0 0 0 5.805-3.588L168 201.1h28.42a20.17 20.17 0 0 0 20.17-20.16V95.28a20.18 20.18 0 0 0-20.17-20.17"/><path fill="#384042" d="M141.27 182a38.61 38.61 0 0 1-38.57-38.56 4.309 4.309 0 1 1 8.62 0 30 30 0 0 0 8.133 22.324 30 30 0 0 0 9.938 6.955 30 30 0 0 0 23.758 0 29.99 29.99 0 0 0 18.071-29.279 4.309 4.309 0 0 1 7.425-3.18 4.3 4.3 0 0 1 1.185 3.18A38.61 38.61 0 0 1 141.27 182m-34.26-63.17a5.04 5.04 0 1 0 0-10.08 5.04 5.04 0 0 0 0 10.08m68.52 0a5.04 5.04 0 1 0 0-10.08 5.04 5.04 0 0 0 0 10.08m68.9 81.81V81.54h23.44v47.91h54.51V81.54h23.44v119.1h-23.44v-50.87h-54.51v50.87zm156.62 2.08q-21.89 0-32.73-11.55T357.47 155q0-24.65 10.85-36.19 10.85-11.541 32.73-11.55 19.95 0 30.12 11.29t10.15 35.76v5.9h-61.45q.17 12.51 5.12 18.93c3.29 4.28 8.77 6.42 16.4 6.42 3.228.054 6.43-.597 9.38-1.91a14.74 14.74 0 0 0 6.51-5.64 17.5 17.5 0 0 0 2.34-9.46h21.7q0 11.799-5.29 19.35a31.35 31.35 0 0 1-14.41 11.2 55 55 0 0 1-20.57 3.62m-20.84-57.64h38.2q0-10.94-4.78-15.71t-12.58-4.78q-9.74 0-14.76 5t-6.08 15.49m73.42 55.56v-91.33h18.57l1.91 14.59h1.22a32.95 32.95 0 0 1 7.12-11.72q4.68-5 13-5c3.013.06 5.998.586 8.85 1.56v20.66h-6.4a25.06 25.06 0 0 0-12.41 2.78 17.07 17.07 0 0 0-7.38 8.33 34.6 34.6 0 0 0-2.43 13.89v46.19zm100.52 2.08q-21.87 0-32.73-11.55T510.57 155q0-24.65 10.85-36.19 10.85-11.541 32.73-11.55 20 0 30.12 11.29t10.16 35.76v5.9H533q.16 12.51 5.12 18.93t16.41 6.42a22.1 22.1 0 0 0 9.37-1.91 14.7 14.7 0 0 0 6.51-5.64 17.53 17.53 0 0 0 2.35-9.46h21.7q0 11.799-5.3 19.35a31.3 31.3 0 0 1-14.41 11.2 55 55 0 0 1-20.6 3.62m-20.83-57.64h38.19q0-10.94-4.77-15.71t-12.59-4.78q-9.72 0-14.76 5t-6.07 15.49M605 200.64v-6.08a35.53 35.53 0 0 1 4.27-17.56 55.4 55.4 0 0 1 10.94-13.8 160 160 0 0 1 14.32-11.72q7.65-5.55 14.5-11.11a55.5 55.5 0 0 0 11.2-12 29.6 29.6 0 0 0 3.47-7.37 27 27 0 0 0 1.21-8.07 16.6 16.6 0 0 0-1.65-7 13.56 13.56 0 0 0-5.55-5.9 19.2 19.2 0 0 0-10-2.35 24.7 24.7 0 0 0-10.51 2 13.3 13.3 0 0 0-6.33 6 20.8 20.8 0 0 0-2.09 9.72v7.12h-21.85a38.4 38.4 0 0 1-.7-7q0-12.84 5.91-20.74a34.4 34.4 0 0 1 15.62-11.63 58.1 58.1 0 0 1 21-3.74 49.1 49.1 0 0 1 16.49 2.43 32.4 32.4 0 0 1 11.11 6.43 30.9 30.9 0 0 1 6.69 8.59 37 37 0 0 1 3.3 9.2c.592 2.711.91 5.475.95 8.25a40.7 40.7 0 0 1-3.73 17.71 51.8 51.8 0 0 1-9.9 14.06 107 107 0 0 1-13.19 11.37 394 394 0 0 1-13.46 9.46 73.5 73.5 0 0 0-10.76 8.68 20 20 0 0 0-2.43 2.52 15 15 0 0 0-1.74 2.69H688v19.8zm124.15 0v-99h-37.68v-20.1h98.79v20.13h-37.68v99z"/><path fill="#384042" d="M802.24 202.72a47 47 0 0 1-8.77-1 30 30 0 0 1-9.47-3.52 21 21 0 0 1-7.55-7.72q-3-5.11-3-13.46 0-12.32 7.2-19.27 7.2-6.951 20-9.81a134.2 134.2 0 0 1 29.25-2.86V138a19.5 19.5 0 0 0-1.13-6.86 9.32 9.32 0 0 0-4.25-4.86q-3.12-1.81-9-1.82c-4.16 0-7.41.49-9.72 1.48a10.24 10.24 0 0 0-4.86 3.64 8.1 8.1 0 0 0-1.39 4.43v2.43h-21.44a6.6 6.6 0 0 1-.18-1.65v-2.17q0-11.63 10.25-18.49t26.91-6.86q18.75 0 27.77 7.73t9 21.44v42.19c0 2.2.63 3.76 1.91 4.68a6.9 6.9 0 0 0 4.17 1.39h5.21v15.28a27.5 27.5 0 0 1-5 1.74c-2.673.628-5.414.92-8.16.87-4.06.126-8.06-.998-11.46-3.22a16.14 16.14 0 0 1-6.42-8.94h-1a33.6 33.6 0 0 1-11.29 8.94q-6.82 3.35-17.58 3.35m6.76-17.54c4.028.151 8.02-.807 11.54-2.77a17.8 17.8 0 0 0 7-7.56 24.7 24.7 0 0 0 2.34-11v-3.65a108 108 0 0 0-16.75 1.22 31.9 31.9 0 0 0-12.41 4.25 10.15 10.15 0 0 0-4.69 9.12 9.56 9.56 0 0 0 3.21 7.64q3.17 2.76 9.76 2.75m64.94 15.46V75.11h22v125.53zm39.93 0V75.11h22v72.22l31.94-38h25.7l-30.38 35.25 32.11 56.08H970l-21-39.94-13 12.68v27.26z"/></svg>
